public/images/icons/box_tx.svg

<svg width="39" height="44" viewBox="0 0 39 44" fill="none" xmlns="http://www.w3.org/2000/svg">
<g clip-path="url(#clip0_150_4577)" filter="url(#filter0_d_150_4577)">
<path d="M18.345 6.10498L1.29529 15.9487L18.345 25.7923L35.3948 15.9487L18.345 6.10498Z" fill="#E2E2E2"/>
<path d="M1.29529 15.9487V30.8264L18.345 40.67V25.7924L1.29529 15.9487Z" fill="#C1C1C1"/>
<path d="M18.3451 25.7924V40.67L35.3948 30.8264V15.9487L18.3451 25.7924Z" fill="#A3A3A3"/>
<path d="M18.345 6.10498L1.29529 15.9487L18.345 25.7923L35.3948 15.9487L18.345 6.10498Z" stroke="#636363" stroke-width="0.590621" stroke-linejoin="round"/>
<path d="M1.29529 15.9487V30.8264L18.345 40.67V25.7924L1.29529 15.9487Z" stroke="#636363" stroke-width="0.590621" stroke-linejoin="round"/>
<path d="M18.3451 25.7924V40.67L35.3948 30.8264V15.9487L18.3451 25.7924Z" stroke="#636363" stroke-width="0.590621" stroke-linejoin="round"/>
<path d="M19.0847 12.1265L10.79 16.9155L15.7354 19.7707H19.4751L25.9001 16.0613L19.0847 12.1265Z" fill="white"/>
<path d="M22.1001 15.967L18.5553 13.9204" stroke="#636363" stroke-width="0.25" stroke-miterlimit="10" stroke-linecap="round"/>
<path d="M20.9242 16.6052L17.3794 14.5586" stroke="#636363" stroke-width="0.25" stroke-miterlimit="10" stroke-linecap="round"/>
<path d="M18.9906 16.8584L16.1464 15.2163" stroke="#636363" stroke-width="0.25" stroke-miterlimit="10" stroke-linecap="round"/>
<path d="M17.6052 18.6914L19.4751 19.771H15.7354L17.6052 18.6914Z" stroke="#636363" stroke-width="0.590621" stroke-linejoin="round"/>
<path d="M19.0847 12.1265L10.79 16.9155L15.7354 19.7707H19.4751L25.9001 16.0613L19.0847 12.1265Z" stroke="#636363" stroke-width="0.590621" stroke-linejoin="round"/>
<path d="M26.7353 1.85602L24.6431 1.29541L22.3267 9.94009L24.419 10.5007L26.7353 1.85602Z" fill="#A3A3A3"/>
<path d="M26.7353 1.85602L24.6431 1.29541L22.3267 9.94009L24.419 10.5007L26.7353 1.85602Z" stroke="#636363" stroke-width="0.590621" stroke-linejoin="round"/>
<path d="M22.7042 12.7153L22.3267 9.93994L24.4189 10.5006L22.7042 12.7153Z" fill="#C1C1C1"/>
<path d="M22.7042 12.7153L22.3267 9.93994L24.4189 10.5006L22.7042 12.7153Z" stroke="#636363" stroke-width="0.590621" stroke-linejoin="round"/>
<g style="mix-blend-mode:overlay">
<path d="M35.5425 15.6934L24.9692 9.58893L27.02 1.93262C27.062 1.77539 26.9692 1.61328 26.811 1.57129L24.7192 1.01074C24.646 0.991211 24.563 1.00098 24.4956 1.04004C24.4272 1.0791 24.3784 1.14355 24.3579 1.21973L22.4976 8.16193L18.4927 5.84961C18.4009 5.79688 18.2896 5.79688 18.1978 5.84961L1.14795 15.6934C1.05615 15.7461 1.00049 15.8438 1.00049 15.9492V30.8262C1.00049 30.9316 1.05615 31.0293 1.14795 31.082L18.1978 40.9258C18.2437 40.9521 18.2944 40.9648 18.3452 40.9648C18.396 40.9648 18.4468 40.9521 18.4927 40.9258L35.5425 31.082C35.6343 31.0293 35.6899 30.9316 35.6899 30.8262V15.9492C35.6899 15.8438 35.6343 15.7461 35.5425 15.6934Z" fill="#9850FF"/>
</g>
</g>
<defs>
<filter id="filter0_d_150_4577" x="0" y="0" width="38.6902" height="43.9653" filterUnits="userSpaceOnUse" color-interpolation-filters="sRGB">
<feFlood flood-opacity="0" result="BackgroundImageFix"/>
<feColorMatrix in="SourceAlpha" type="matrix" values="0 0 0 0 0 0 0 0 0 0 0 0 0 0 0 0 0 0 127 0" result="hardAlpha"/>
<feOffset dx="1" dy="1"/>
<feGaussianBlur stdDeviation="1"/>
<feColorMatrix type="matrix" values="0 0 0 0 0 0 0 0 0 0 0 0 0 0 0 0 0 0 0.12 0"/>
<feBlend mode="normal" in2="BackgroundImageFix" result="effect1_dropShadow_150_4577"/>
<feBlend mode="normal" in="SourceGraphic" in2="effect1_dropShadow_150_4577" result="shape"/>
</filter>
<clipPath id="clip0_150_4577">
<rect width="34.6901" height="39.9653" fill="white" transform="translate(1 1)"/>
</clipPath>
</defs>
</svg>

<svg xmlns="http://www.w3.org/2000/svg" width="39" height="44" fill="none"><g clip-path="url(#a)" filter="url(#b)"><path fill="#E2E2E2" d="m18.345 6.105-17.05 9.844 17.05 9.843 17.05-9.843-17.05-9.844Z"/><path fill="#C1C1C1" d="M1.295 15.949v14.877l17.05 9.844V25.792L1.295 15.95Z"/><path fill="#A3A3A3" d="M18.345 25.792V40.67l17.05-9.844V15.95l-17.05 9.843Z"/><path stroke="#636363" stroke-linejoin="round" stroke-width=".591" d="m18.345 6.105-17.05 9.844 17.05 9.843 17.05-9.843-17.05-9.844Z"/><path stroke="#636363" stroke-linejoin="round" stroke-width=".591" d="M1.295 15.949v14.877l17.05 9.844V25.792L1.295 15.95Z"/><path stroke="#636363" stroke-linejoin="round" stroke-width=".591" d="M18.345 25.792V40.67l17.05-9.844V15.95l-17.05 9.843Z"/><path fill="#fff" d="m19.085 12.127-8.295 4.789 4.945 2.855h3.74l6.425-3.71-6.815-3.934Z"/><path stroke="#636363" stroke-linecap="round" stroke-miterlimit="10" stroke-width=".25" d="m22.1 15.967-3.545-2.047M20.924 16.605 17.38 14.56M18.99 16.858l-2.844-1.642"/><path stroke="#636363" stroke-linejoin="round" stroke-width=".591" d="m17.605 18.691 1.87 1.08h-3.74l1.87-1.08Z"/><path stroke="#636363" stroke-linejoin="round" stroke-width=".591" d="m19.085 12.127-8.295 4.789 4.945 2.855h3.74l6.425-3.71-6.815-3.934Z"/><path fill="#A3A3A3" d="m26.735 1.856-2.092-.56-2.316 8.644 2.092.56 2.316-8.644Z"/><path stroke="#636363" stroke-linejoin="round" stroke-width=".591" d="m26.735 1.856-2.092-.56-2.316 8.644 2.092.56 2.316-8.644Z"/><path fill="#C1C1C1" d="m22.704 12.715-.377-2.775 2.092.56-1.715 2.215Z"/><path stroke="#636363" stroke-linejoin="round" stroke-width=".591" d="m22.704 12.715-.377-2.775 2.092.56-1.715 2.215Z"/><path fill="#9850FF" d="M35.542 15.693 24.97 9.59l2.051-7.656a.295.295 0 0 0-.209-.362l-2.092-.56a.293.293 0 0 0-.361.209l-1.86 6.942-4.005-2.312a.295.295 0 0 0-.295 0l-17.05 9.843A.294.294 0 0 0 1 15.95v14.877c0 .106.056.203.148.256l17.05 9.844a.295.295 0 0 0 .295 0l17.05-9.844a.294.294 0 0 0 .147-.256V15.95a.294.294 0 0 0-.148-.256Z" style="mix-blend-mode:overlay"/></g><defs><clipPath id="a"><path fill="#fff" d="M1 1h34.69v39.965H1z"/></clipPath><filter id="b" width="38.69" height="43.965" x="0" y="0" color-interpolation-filters="sRGB" filterUnits="userSpaceOnUse"><feFlood flood-opacity="0" result="BackgroundImageFix"/><feColorMatrix in="SourceAlpha" result="hardAlpha" values="0 0 0 0 0 0 0 0 0 0 0 0 0 0 0 0 0 0 127 0"/><feOffset dx="1" dy="1"/><feGaussianBlur stdDeviation="1"/><feColorMatrix values="0 0 0 0 0 0 0 0 0 0 0 0 0 0 0 0 0 0 0.12 0"/><feBlend in2="BackgroundImageFix" result="effect1_dropShadow_150_4577"/><feBlend in="SourceGraphic" in2="effect1_dropShadow_150_4577" result="shape"/></filter></defs></svg>
